!!!!SEGMENT: pl-kk--kk-i-196--001_anonim--iste-sanctus.krn
!!!cenid: 17xx:2608
!!!COM: Anonim
!!!COM-rismID: pe30004985
!!!CDT:
!!!CNT:
!!!OTL: Iste sanctus
!!!PDT:
!!!AGN: Sacred
!!!YEC: Copyright 2022 Narodowy Instytut Fryderyka Chopina (https://polishscores.org)
!!!YEM: License CC-BY-4.0 (https://creativecommons.org/licenses/by/4.0)
!!!SMS-siglum: PL-Kk
!!!SMS-shelfmark: Kk.I.196
!!!SMS-variant:
!!!SMS-altvar:
!!!SMS-shelfwork: 001 W
!!!NIFC-rismSourceID: 1001152177
!!!NIFC-rismChildID: 1001152178
!!!NIFC-islandoraID: pl-kk:4094
!!!URL-pdf-islandora: https://repozytorium.nifc.pl/islandora/object/pl-kk:4094/datastream/PDF/view
!!!URL-scan: https://polish.musicsources.pl/pl/lokalizacje/galeria/rekopisy/5824/3 @EN{Scan on Polish Music Sources Website} @PL{Skany w portalu Dziedzictwo Muzyki Polskiej w otwartym dostępie}
!!!IIIF:
!!!ONB-nifc: UWAGA: CATBBrip (należy uwzględnić również B rip.) Utwory w źródle: 1. Iste sanctus, 2. Iste est qui contempsit vitam mundi
!!!OMD:
!!!AIN: 1 alto 2 bass 1 canto 1 tenor
!!!key: G:mix
**kern	**text	**kern	**text	**kern	**text	**kern	**text	**kern	**text
*part5	*part5	*part4	*part4	*part3	*part3	*part2	*part2	*part1	*part1
*staff5	*staff5	*staff4	*staff4	*staff3	*staff3	*staff2	*staff2	*staff1	*staff1
*I"Baſso Ripieno.	*	*I"Baſso.	*	*I"Tenore.	*	*I"Alto.	*	*I"Canto.	*
*I'B rip	*	*I'B	*	*I'T	*	*I'A	*	*I'S	*
*Ibass	*	*Ibass	*	*Itenor	*	*Ialto	*	*Icanto	*
*ICvox	*	*ICvox	*	*ICvox	*	*ICvox	*	*ICvox	*
*clefF3	*	*clefF3	*	*clefC4	*	*clefC2	*	*clefG2	*
*k[]	*	*k[]	*	*k[]	*	*k[]	*	*k[]	*
*G:mix:	*	*G:mix	*	*G:mix	*	*G:mix	*	*G:mix	*
*M2/1	*	*M2/1	*	*M2/1	*	*M2/1	*	*M2/1	*
*met(C|)	*	*met(C|)	*	*met(C|)	*	*met(C|)	*	*met(C|)	*
=1-	=1-	=1-	=1-	=1-	=1-	=1-	=1-	=1-	=1-
!LO:TX:t=P:problem:kreska pseudotaktowa	!	!LO:TX:t=P:problem:kreska pseudotaktowa	!	!	!	!LO:TX:t=P:problem:kreska pseudotaktowa	!	!	!
0r	.	0r	.	00r	.	00r	.	1.ee	Is-
*	*	*	*	*	*	*	*	*2\right	*
!	!	!	!	!	!	!	!	!LO:TX:t=P:problem:kreska pseudotaktowa	!
.	.	.	.	.	.	.	.	2dd\	-te
=2-	=2-	=2-	=2-	=2-	=2-	=2-	=2-	=2-	=2-
1.A	Is-	1.A	Is-	.	.	.	.	1ccn	San-
!	!	!	!	!	!	!	!	!LO:TX:t=P:problem:kreska pseudotaktowa	!
.	.	.	.	.	.	.	.	1b	-ct(us)
*2\right	*	*2\right	*	*	*	*	*	*	*
!LO:TX:t=P:problem:kreska pseudotaktowa	!	!LO:TX:t=P:problem:kreska pseudotaktowa	!	!	!	!	!	!	!
2G\	-te	2G\	-te	.	.	.	.	.	.
=3-	=3-	=3-	=3-	=3-	=3-	=3-	=3-	=3-	=3-
!LO:TX:t=P:problem:kreska pseudotaktowa	!	!LO:TX:t=P:problem:kreska pseudotaktowa	!	!	!	!	!	!	!
1F	San-	1F	San-	0r	.	1.a	Is-	2r	.
.	.	.	.	.	.	.	.	2a/	pro
!LO:TX:t=P:problem:kreska pseudotaktowa	!	!LO:TX:t=P:problem:kreska pseudotaktowa	!	!	!	!	!	!	!
1E,<	-ct(us)	1E,<	-ct(us)	.	.	.	.	2b\	le-
*	*	*	*	*	*	*2\right	*	*	*
!	!	!	!	!	!	!LO:TX:t=P:problem:kreska pseudotaktowa	!	!LO:TX:t=P:problem:kreska pseudotaktowa	!
.	.	.	.	.	.	2g\	-te	2cc\	-ge
=4-	=4-	=4-	=4-	=4-	=4-	=4-	=4-	=4-	=4-
!	!	!	!	!LO:TX:t=P:problem:kreska pseudotaktowa	!	!	!	!	!
0r	.	0r	.	1r	.	1f	San-	1.dd	De-
!	!	!	!	!	!	!LO:TX:t=P:problem:kreska pseudotaktowa	!	!	!
.	.	.	.	1A	Is-	1e,<	-ct(us)	.	.
!	!	!	!	!	!	!	!	!LO:TX:t=P:problem:kreska pseudotaktowa	!
.	.	.	.	.	.	.	.	2cc\	-i
=5-	=5-	=5-	=5-	=5-	=5-	=5-	=5-	=5-	=5-
!LO:TX:t=P:problem:kreska pseudotaktowa	!	!LO:TX:t=P:problem:kreska pseudotaktowa	!	!	!	!	!	!	!
1r	.	1r	.	2r	.	2r	.	1b	Su-
!	!	!	!	!LO:TX:t=P:problem:kreska pseudotaktowa	!	!	!	!	!
.	.	.	.	2G/	-te	1e	Is-	.	.
!	!	!	!	!	!	!	!	!LO:TX:t=P:problem:kreska pseudotaktowa	!
1.A	Is-	1.A	Is-	1Fn	San-	.	.	1a,<	-i
!	!	!	!	!	!	!LO:TX:t=P:problem:kreska pseudotaktowa	!	!	!
.	.	.	.	.	.	2d/	-te	.	.
=6-	=6-	=6-	=6-	=6-	=6-	=6-	=6-	=6-	=6-
!	!	!	!	!LO:TX:t=P:problem:kreska pseudotaktowa	!	!	!	!	!
.	.	.	.	1E,<	-ct(us)	4c/	San-	2r	.
.	.	.	.	.	.	4B/	.	.	.
!LO:TX:t=P:problem:kreska pseudotaktowa	!	!LO:TX:t=P:problem:kreska pseudotaktowa	!	!	!	!	!	!	!
2G\	-te	2G\	-te	.	.	1e	.	2b\	pro
(<1F	San-	(1F	San-	2r	.	.	.	2b\	le-
!	!	!	!	!	!	!	!	!LO:TX:t=P:problem:kreska pseudotaktowa	!
!	!	!	!	!LO:TX:t=P:problem:kreska pseudotaktowa	!	!	!	!	!
.	.	.	.	2A/	pro	2d/	.	2a/	-ge
*	*	*	*	*	*	*	*	*custos:cc	*
=7-	=7-	=7-	=7-	=7-	=7-	=7-	=7-	=7-	=7-
!	!	!LO:TX:t=P:problem:kreska pseudotaktowa	!	!	!	!LO:TX:t=P:problem:kreska pseudotaktowa	!	!LO:LB:g=original	!
1E)	.	1E)	.	2A/	le-	1e,<	-ct(us)	2cc\	De-
!	!	!	!	!LO:TX:t=P:problem:kreska pseudotaktowa	!	!	!	!LO:TX:t=P:problem:kreska pseudotaktowa	!
.	.	.	.	2G/	-ge	.	.	2b\	-i
*	*	*	*	*2\right	*	*	*	*	*
!LO:TX:t=P:problem:kreska pseudotaktowa	!	!LO:TX:t=P:problem:kreska pseudotaktowa	!	!	!	!	!	!	!
1AA,<	-ct(us)	1AA,<	-ct(us)	2.c\	De-	2r	.	2.a/	De-
*custos:E	*	*	*	*	*	*	*	*	*
.	.	.	.	.	.	2e\	pro	.	.
!	!	!	!	!	!	!	!	!LO:TX:t=P:problem:kreska pseudotaktowa	!
.	.	.	.	4B\	.	.	.	4b/	.
=8-	=8-	=8-	=8-	=8-	=8-	=8-	=8-	=8-	=8-
!LO:LB:g=original	!	!	!	!	!	!	!	!	!
!LO:TX:t=P:problem:kreska pseudotaktowa	!	!	!	!	!	!	!	!	!
0r	.	0r	.	2A/	.	2f\	le-	(4cc\	-i
.	.	.	.	.	.	.	.	4dd,<\)	.
!	!	!	!	!	!	!LO:TX:t=P:problem:kreska pseudotaktowa	!	!	!
!	!	!	!	!LO:TX:t=P:problem:kreska pseudotaktowa	!	!	!	!	!
.	.	.	.	2G,</	-i	2g\	-ge	1ee	su-
*	*	*	*	*	*	*custos:a	*	*	*
!	!	!	!	!LO:TX:t=P:problem:kreska pseudotaktowa	!	!	!	!	!
!	!	!	!	!	!	!LO:LB:g=original	!	!	!
.	.	.	.	1F	su-	1.a	De-	.	.
*	*	*	*	*custos:E	*	*	*	*	*
.	.	.	.	.	.	.	.	2dd\	-i
=9-	=9-	=9-	=9-	=9-	=9-	=9-	=9-	=9-	=9-
!	!	!	!	!LO:LB:g=original	!	!	!	!LO:TX:t=P:problem:kreska pseudotaktowa	!
2r	.	2r	.	2E,</	-i	.	.	1ee,<	.
!LO:TX:t=P:problem:kreska pseudotaktowa	!	!LO:TX:t=P:problem:kreska pseudotaktowa	!	!LO:TX:t=P:problem:kreska pseudotaktowa	!	!LO:TX:t=P:problem:kreska pseudotaktowa	!	!	!
2E/	pro	2E/	pro	2G/	pro	2g\	-i	.	.
*	*	*custos:F	*	*	*	*	*	*	*
!	!	!LO:LB:g=original	!	!	!	!	!	!	!
2F\	le-	2F\	le-	2A\	le-	1f	Su-	0r	.
!LO:TX:t=P:problem:kreska pseudotaktowa	!	!LO:TX:t=P:problem:kreska pseudotaktowa	!	!LO:TX:t=P:problem:kreska pseudotaktowa	!	!	!	!	!
2G\	-ge	2G\	-ge	2B\	-ge	.	.	.	.
=10-	=10-	=10-	=10-	=10-	=10-	=10-	=10-	=10-	=10-
1.A	De-	1.A	De-	1.c	De-	2e,<\	-i	.	.
!	!	!	!	!	!	!LO:TX:t=P:problem:kreska pseudotaktowa	!	!	!
.	.	.	.	.	.	2e\	pro	.	.
.	.	.	.	.	.	2f\	le-	2r	.
!LO:TX:t=P:problem:kreska pseudotaktowa	!	!LO:TX:t=P:problem:kreska pseudotaktowa	!	!LO:TX:t=P:problem:kreska pseudotaktowa	!	!LO:TX:t=P:problem:kreska pseudotaktowa	!	!LO:TX:t=P:problem:kreska pseudotaktowa	!
2G\	-i	2G\	-i	2B\	-i	2g\	-ge	2b\	pro
=11-	=11-	=11-	=11-	=11-	=11-	=11-	=11-	=11-	=11-
1F	Su-	1F	su-	1A	Su-	1.a	De-	2cc\	le-
!	!	!	!	!	!	!	!	!LO:TX:t=P:problem:kreska pseudotaktowa	!
.	.	.	.	.	.	.	.	2dd\	-ge
!LO:TX:t=P:problem:kreska pseudotaktowa	!	!LO:TX:t=P:problem:kreska pseudotaktowa	!	!LO:TX:t=P:problem:kreska pseudotaktowa	!	!	!	!	!
1E,<	-i	1E,<	-i	1B	-i	.	.	1.ee	De-
!	!	!	!	!	!	!LO:TX:t=P:problem:kreska pseudotaktowa	!	!	!
.	.	.	.	.	.	2g\	-i	.	.
=12-	=12-	=12-	=12-	=12-	=12-	=12-	=12-	=12-	=12-
!LO:TX:t=P:problem:kreska pseudotaktowa	!	!	!	!LO:TX:t=P:problem:kreska pseudotaktowa	!	!	!	!	!
1r	.	1r	.	00r	.	2.f\	De-	.	-i
!	!	!	!	!	!	!	!	!LO:TX:t=P:problem:kreska pseudotaktowa	!
.	.	.	.	.	.	.	.	2dd\	su-
.	.	.	.	.	.	8e/L	.	.	.
.	.	.	.	.	.	8d/J	.	.	.
2r	.	2r	.	.	.	2e,<\	-i	2.cc\	.
!LO:TX:t=P:problem:kreska pseudotaktowa	!	!LO:TX:t=P:problem:kreska pseudotaktowa	!	!	!	!	!	!	!
2C/	pro	2C/	pro	.	.	1a\	Su-	.	.
.	.	.	.	.	.	.	.	8b/L	.
.	.	.	.	.	.	.	.	8a/J	.
=13-	=13-	=13-	=13-	=13-	=13-	=13-	=13-	=13-	=13-
!	!	!	!	!	!	!	!	!LO:TX:t=P:problem:kreska pseudotaktowa	!
2D/	le-	2D/	le-	.	.	.	.	1b	.
*	*	*	*	*	*	*	*	*custos:a	*
!LO:TX:t=P:problem:kreska pseudotaktowa	!	!LO:TX:t=P:problem:kreska pseudotaktowa	!	!	!	!	!	!	!
2E/	-ge	2E/	-ge	.	.	2g\	.	.	.
!	!	!	!	!	!	!LO:TX:t=P:problem:kreska pseudotaktowa	!	!	!
!	!	!	!	!	!	!	!	!LO:LB:g=original	!
1.F	De-	1.F	De-	.	.	1a	-i	2a,</	-i
!	!	!	!	!	!	!	!	!LO:TX:t=P:problem:kreska pseudotaktowa	!
.	.	.	.	.	.	.	.	2cc\	pro
=14-	=14-	=14-	=14-	=14-	=14-	=14-	=14-	=14-	=14-
.	.	.	.	2r	.	0r	.	2dd\	le-
!LO:TX:t=P:problem:kreska pseudotaktowa	!	!LO:TX:t=P:problem:kreska pseudotaktowa	!	!LO:TX:t=P:problem:kreska pseudotaktowa	!	!	!	!LO:TX:t=P:problem:kreska pseudotaktowa	!
2E/	-i	2E/	-i	2G/	pro	.	.	2ee\	-ge
1D	su-	1D	su-	2A\	le-	.	.	1.ff	De-
!	!	!	!	!LO:TX:t=P:problem:kreska pseudotaktowa	!	!	!	!	!
.	.	.	.	2B\	-ge	.	.	.	.
=15-	=15-	=15-	=15-	=15-	=15-	=15-	=15-	=15-	=15-
!LO:TX:t=P:problem:kreska pseudotaktowa	!	!LO:TX:t=P:problem:kreska pseudotaktowa	!	!	!	!LO:TX:t=P:problem:kreska pseudotaktowa	!	!	!
1C,<	-i	1C,<	-i	1.c	De-	1r	.	.	.
!	!	!	!	!	!	!	!	!LO:TX:t=P:problem:kreska pseudotaktowa	!
.	.	.	.	.	.	.	.	2ee\	-i
!LO:LB:g=original	!	!	!	!	!	!	!	!	!
2r	.	2r	.	.	.	2r	.	1dd	su-
!LO:TX:t=P:problem:kreska pseudotaktowa	!	!LO:TX:t=P:problem:kreska pseudotaktowa	!	!LO:TX:t=P:problem:kreska pseudotaktowa	!	!LO:TX:t=P:problem:kreska pseudotaktowa	!	!	!
2G\	Cer-	2G\	Cer-	2B\	-i	2g\	Cer-	.	.
=16-	=16-	=16-	=16-	=16-	=16-	=16-	=16-	=16-	=16-
!	!	!	!	!	!	!	!	!LO:TX:t=P:problem:kreska pseudotaktowa	!
2A\	-ta-	2A\	-ta-	1A	Su-	4f/	-ta-	1cc	-i
.	.	.	.	.	.	4e/	.	.	.
2.c\	.	2.c\	.	.	.	4e/	.	.	.
.	.	.	.	.	.	8d/L	.	.	.
!	!	!	!	!	!	!LO:TX:t=P:problem:kreska pseudotaktowa	!	!	!
.	.	.	.	.	.	8c/J	.	.	.
*	*	*	*	*	*	*custos:d	*	*	*
!	!	!	!	!LO:TX:t=P:problem:kreska pseudotaktowa	!	!	!	!	!
.	.	.	.	1G,<	-i	2d/	.	2r	.
8B\L	.	8B\L	.	.	.	.	.	.	.
8A\J	.	8A\J	.	.	.	.	.	.	.
!LO:TX:t=P:problem:kreska pseudotaktowa	!	!LO:TX:t=P:problem:kreska pseudotaktowa	!	!	!	!	!	!LO:TX:t=P:problem:kreska pseudotaktowa	!
2Bn\	.	2B\	.	.	.	2.g\	.	2dd\	cer-
*	*	*custos:c	*	*	*	*	*	*	*
=17-	=17-	=17-	=17-	=17-	=17-	=17-	=17-	=17-	=17-
!	!	!LO:LB:g=original	!	!LO:LB:g=original	!	!	!	!	!
2c\	.	(2c\	.	2r	.	.	.	2ee\	-ta-
.	.	.	.	.	.	8f#X\L	.	.	.
.	.	.	.	.	.	8e\J	.	.	.
!LO:TX:t=P:problem:kreska pseudotaktowa	!	!LO:TX:t=P:problem:kreska pseudotaktowa	!	!LO:TX:t=P:problem:kreska pseudotaktowa	!	!	!	!	!
2A\	.	2A\)	.	2c\	cer-	2f#X\	.	2.cc\	.
!LO:TX:t=P:problem:kreska pseudotaktowa	!	!LO:TX:t=P:problem:kreska pseudotaktowa	!	!	!	!	!	!	!
1G,<	-vit	1G,<	-vit	2d\	-ta-	1g	.	.	.
.	.	.	.	.	.	.	.	8b/L	.
.	.	.	.	.	.	.	.	8a/J	.
.	.	.	.	2.e\	.	.	.	2b\	.
=18-	=18-	=18-	=18-	=18-	=18-	=18-	=18-	=18-	=18-
!	!	!	!	!	!	!	!	!LO:TX:t=P:problem:kreska pseudotaktowa	!
2r	.	2r	.	.	.	0g,<	-vit	1cc,<	-vit
.	.	.	.	4d\	.	.	.	.	.
!	!	!	!	!LO:TX:t=P:problem:kreska pseudotaktowa:między nutą i kropką	!	!	!	!	!
2C/	us-	2C/	us-	[<2c\	.	.	.	.	.
!LO:TX:t=P:problem:kreska pseudotaktowa	!	!LO:TX:t=P:problem:kreska pseudotaktowa	!	!LO:N:xstem	!	!	!	!	!
1G	-q(ue)	1G	-que	4c\]	.	.	.	2r	.
.	.	.	.	8B\L	.	.	.	.	.
.	.	.	.	8A\J	.	.	.	.	.
!	!	!	!	!LO:TX:t=P:problem:kreska pseudotaktowa	!	!	!	!	!
.	.	.	.	2B\	.	.	.	2dd\	Cer-
=19-	=19-	=19-	=19-	=19-	=19-	=19-	=19-	=19-	=19-
!	!	!	!	!LO:TX:t=P:problem:kreska pseudotaktowa	!	!	!	!	!
(<2E/	ad	(<2E/	ad	1c,<	-vit	2r	.	2ee\	-ta-
!	!	!LO:TX:t=P:problem:kreska pseudotaktowa	!	!	!	!LO:TX:t=P:problem:kreska pseudotaktowa	!	!LO:TX:t=P:problem:kreska pseudotaktowa	!
2F\)	.	2F\)	.	.	.	2c/	cer-	2a/	-vit
*	*	*	*	*	*	*	*	*custos:b	*
!	!	!	!	!	!	!	!	!LO:LB:g=original	!
2D/	mor-	2D/	mor-	2r	.	2d/	-ta-	2b\	us-
!LO:TX:t=P:problem:kreska pseudotaktowa	!	!LO:TX:t=P:problem:kreska pseudotaktowa	!	!LO:TX:t=P:problem:kreska pseudotaktowa	!	!	!	!	!
2C/	.	2C/	.	2c\	cer-	2e\	-vit	1cc\	-que
=20-	=20-	=20-	=20-	=20-	=20-	=20-	=20-	=20-	=20-
1D	-tem	1D	-tem	2A/	-ta-	1.fny	uſ-	.	.
.	.	.	.	4G/	.	.	.	2b\	ad
!	!	!	!	!LO:TX:t=P:problem:kreska pseudotaktowa	!	!	!	!	!
.	.	.	.	4F/	.	.	.	.	.
!LO:TX:t=P:problem:kreska pseudotaktowa	!	!LO:TX:t=P:problem:kreska pseudotaktowa	!	!	!	!	!	!	!
1C,<	.	1C,<	.	2G/	.	.	.	1cc	mor-
!	!	!	!	!	!	!LO:TX:t=P:problem:kreska pseudotaktowa	!	!	!
.	.	.	.	2.c\	.	2e/	-que	.	.
=21-	=21-	=21-	=21-	=21-	=21-	=21-	=21-	=21-	=21-
!	!	!	!	!	!	!	!	!LO:TX:t=P:problem:kreska pseudotaktowa	!
2r	.	2r	.	.	.	2d/	ad	1g	-tem
.	.	.	.	8B\L	.	.	.	.	.
.	.	.	.	8A\J	.	.	.	.	.
!LO:TX:t=P:problem:kreska pseudotaktowa	!	!	!	!LO:TX:t=P:problem:kreska pseudotaktowa	!	!	!	!	!
2G\	us-	2G\	us-	2B\	.	1g	mor-	.	.
*custos:A	*	*	*	*	*	*	*	*	*
!LO:TX:t=P:problem:kreska pseudotaktowa	!	!LO:TX:t=P:problem:kreska pseudotaktowa	!	!LO:TX:t=P:problem:kreska pseudotaktowa	!	!	!	!	!
!LO:LB:g=original	!	!	!	!	!	!	!	!	!
1A	.	1A	-q(ue)	1c,<	-vit	.	.	2r	.
!	!	!	!	!	!	!	!	!LO:TX:t=P:problem:kreska pseudotaktowa	!
.	.	.	.	.	.	2f#X\	.	2cc\	Cer-
=22-	=22-	=22-	=22-	=22-	=22-	=22-	=22-	=22-	=22-
!	!	!	!	!LO:LB:g=original	!	!LO:TX:t=P:problem:kreska pseudotaktowa	!	!	!
2G,<\	-que	(2G\	ad	2r	.	1g,<	-tem	2ee\	-ta-
!LO:TX:t=P:problem:kreska pseudotaktowa	!	!LO:TX:t=P:problem:kreska pseudotaktowa	!	!LO:TX:t=P:problem:kreska pseudotaktowa	!	!	!	!	!
2c\	ad	2c\)	.	2c\	cer-	.	.	4ee,<\	-vit
*	*	*	*	*	*	*	*	*	*ij
!	!	!	!	!	!	!	!	!LO:TX:t=P:problem:kreska pseudotaktowa	!
.	.	.	.	.	.	.	.	4ee\	cer-
2B\	mor-	2Bn\	mor-	2G/	-ta-	1r	.	2dd\	-ta-
!LO:TX:t=P:problem:kreska pseudotaktowa	!	!LO:TX:t=P:problem:kreska pseudotaktowa	!	!LO:TX:t=P:problem:kreska pseudotaktowa	!	!	!	!	!
2A\	.	2A\	.	2A\	.	.	.	4cc,<\	-vit
*	*	*	*	*	*	*	*	*	*Xij
!	!	!	!	!	!	!	!	!LO:TX:t=P:problem:kreska pseudotaktowa	!
.	.	.	.	.	.	.	.	4cc\	cer-
=23-	=23-	=23-	=23-	=23-	=23-	=23-	=23-	=23-	=23-
!LO:TX:t=P:problem:kreska pseudotaktowa	!	!	!	!	!	!	!	!	!
[<0G	.	[<0G	.	2B,<\	-vit	1.g	us-	2dd\	-ta-
!	!	!	!	!LO:TX:t=P:problem:kreska pseudotaktowa	!	!	!	!	!
.	.	.	.	2c\	cer-	.	.	2ee\	-vit
.	.	.	.	2d\	-ta-	.	.	(2dd\	us-
!	!	!	!	!LO:TX:t=P:problem:kreska pseudotaktowa	!	!	!	!LO:TX:t=P:problem:kreska pseudotaktowa	!
.	.	.	.	2e,<\	-vit	2g,<\	-que	2cc\)	.
=24-	=24-	=24-	=24-	=24-	=24-	=24-	=24-	=24-	=24-
!LO:TX:t=P:problem:kreska pseudotaktowa	!	!LO:LB:g=original	!	!	!	!LO:TX:t=P:problem:kreska pseudotaktowa	!	!	!
0G]	.	0G]	.	2d\	us-	1g	ad	2b,<\	-que
.	.	.	.	1c	-que	.	.	2ee\	ad
!	!	!	!	!	!	!LO:LB:g=original	!	!	!
.	.	.	.	.	.	0g	mor-	1dd	mor-
!	!	!	!	!LO:TX:t=P:problem:kreska pseudotaktowa	!	!	!	!	!
.	.	.	.	2B\	ad	.	.	.	.
=25-	=25-	=25-	=25-	=25-	=25-	=25-	=25-	=25-	=25-
!LO:TX:t=P:problem:kreska pseudotaktowa	!	!LO:TX:t=P:problem:kreska pseudotaktowa	!	!	!	!	!	!	!
0.C	-tem	0.C	-tem	1c	mor-	.	.	1ee,<	-tem
!	!	!	!	!LO:TX:t=P:problem:kreska pseudotaktowa	!	!LO:TX:t=P:problem:kreska pseudotaktowa	!	!LO:LB:g=original	!
.	.	.	.	0G	-tem	1e	-tem	2r	.
!	!	!	!	!	!	!	!	!LO:TX:t=P:problem:kreska pseudotaktowa	!
.	.	.	.	.	.	.	.	2cc\	et
=26-	=26-	=26-	=26-	=26-	=26-	=26-	=26-	=26-	=26-
.	.	.	.	.	.	2r	.	2ee\	à
.	.	.	.	.	.	2c/	et	1gg	Ver-
!	!	!	!	!LO:TX:t=P:problem:kreska pseudotaktowa	!	!	!	!	!
2r	.	2r	.	1r	.	2e/	à	.	.
!LO:TX:t=P:problem:kreska pseudotaktowa	!	!LO:TX:t=P:problem:kreska pseudotaktowa	!	!	!	!	!	!LO:TX:t=P:problem:kreska pseudotaktowa	!
2C/	et	2C/	et	.	.	1g\	Ver-	2gg\	-bis
=27-	=27-	=27-	=27-	=27-	=27-	=27-	=27-	=27-	=27-
2E/	à	2E/	à	2r	.	.	.	2ee\	im-
!	!	!	!	!LO:TX:t=P:problem:kreska pseudotaktowa	!	!LO:TX:t=P:problem:kreska pseudotaktowa	!	!LO:TX:t=P:problem:kreska pseudotaktowa	!
1G	Ver-	1G	Ver-	2G/	et	2g\	-bis	2ee\	-pi-
.	.	.	.	2B\	à	2g\	im-	2.dd\	-o-
!LO:TX:t=P:problem:kreska pseudotaktowa	!	!LO:TX:t=P:problem:kreska pseudotaktowa	!	!	!	!	!	!	!
2G\	-bis	2G\	-bis	1d\	Ver-	2g\	-pi-	.	.
!	!	!	!	!	!	!	!	!LO:TX:t=P:problem:kreska pseudotaktowa	!
.	.	.	.	.	.	.	.	4cc\	.
=28-	=28-	=28-	=28-	=28-	=28-	=28-	=28-	=28-	=28-
!	!	!	!	!	!	!LO:TX:t=P:problem:kreska pseudotaktowa	!	!	!
2G\	im-	2G\	im-	.	.	1g	-o-	4b/	.
.	.	.	.	.	.	.	.	4a/	.
!	!	!LO:TX:t=P:problem:kreska pseudotaktowa	!	!LO:TX:t=P:problem:kreska pseudotaktowa	!	!	!	!	!
2G\	-pi-	2G\	-pi-	2d\	-bis	.	.	1b	.
!	!	!	!	!LO:LB:g=original	!	!	!	!	!
1G	-o-	1G	-o-	2d\	im-	2d,</	-rum	.	.
!	!	!	!	!LO:TX:t=P:problem:kreska pseudotaktowa	!	!LO:TX:t=P:problem:kreska pseudotaktowa	!	!LO:TX:t=P:problem:kreska pseudotaktowa	!
.	.	.	.	2d\	-pi-	2g\	non	2g,</	-rum
=29-	=29-	=29-	=29-	=29-	=29-	=29-	=29-	=29-	=29-
!LO:TX:t=P:problem:kreska pseudotaktowa	!	!LO:TX:t=P:problem:kreska pseudotaktowa	!	!	!	!	!	!	!
1D,<	-rum	1D,<	-rum	1d	-o-	2.fny\	.	2a/	non
.	.	.	.	.	.	.	.	1dd	ti-
.	.	.	.	.	.	4g\	.	.	.
!LO:LB:g=original	!	!	!	!LO:TX:t=P:problem:kreska pseudotaktowa	!	!	!	!	!
2r	.	2r	.	1A	-rum	4a\	.	.	.
.	.	.	.	.	.	4b\	.	.	.
!LO:TX:t=P:problem:kreska pseudotaktowa	!	!LO:TX:t=P:problem:kreska pseudotaktowa	!	!	!	!LO:TX:t=P:problem:kreska pseudotaktowa	!	!	!
2A\	et	2A\	et	.	.	2.a\	ti-	2cc#X\	-mu-
=30-	=30-	=30-	=30-	=30-	=30-	=30-	=30-	=30-	=30-
!	!	!	!	!	!	!	!	!LO:TX:t=P:problem:kreska pseudotaktowa	!
2F\	à	2F\	à	2r	.	.	.	0dd,<	-it
.	.	.	.	.	.	4g\	.	.	.
1G	Ver-	1G	Ver-	2A\	non	1g	.	.	.
.	.	.	.	2B\	.	.	.	.	.
!LO:TX:t=P:problem:kreska pseudotaktowa	!	!LO:TX:t=P:problem:kreska pseudotaktowa	!	!LO:TX:t=P:problem:kreska pseudotaktowa:między nutą i kropką	!	!	!	!	!
2D/	-bis	2D/	-bis	[<2d\	.	2f#X\	-mu-	.	.
=31-	=31-	=31-	=31-	=31-	=31-	=31-	=31-	=31-	=31-
!	!	!	!	!LO:N:xstem	!	!LO:TX:t=P:problem:kreska pseudotaktowa	!	!	!
2F/	im-	2E/	im-	4d\]	.	1g	-it	1r	.
.	.	.	.	4c\	.	.	.	.	.
!LO:TX:t=P:problem:kreska pseudotaktowa	!	!LO:TX:t=P:problem:kreska pseudotaktowa	!	!	!	!	!	!	!
2E/	-pi-	2E/	-pi-	1c	ti-	.	.	.	.
*	*	*custos:D	*	*	*	*	*	*	*
!	!	!LO:TX:t=P:problem:kreska pseudotaktowa	!	!	!	!LO:TX:t=P:problem:kreska pseudotaktowa	!	!	!
!	!	!LO:LB:g=original	!	!	!	!	!	!	!
1D	-o-	1D	-o-	.	.	1r	.	2r	.
!	!	!	!	!	!	!	!	!LO:TX:t=P:problem:kreska pseudotaktowa	!
.	.	.	.	2B\	-mu-	.	.	2dd\	et
=32-	=32-	=32-	=32-	=32-	=32-	=32-	=32-	=32-	=32-
!LO:TX:t=P:problem:kreska pseudotaktowa	!	!LO:TX:t=P:problem:kreska pseudotaktowa	!	!LO:TX:t=P:problem:kreska pseudotaktowa	!	!	!	!	!
!	!	!	!	!	!	!LO:LB:g=original	!	!	!
1C,<	-rum	1C,<	-rum	0c	-it	2r	.	2ee\	à
!	!	!	!	!	!	!LO:TX:t=P:problem:kreska pseudotaktowa	!	!	!
.	.	.	.	.	.	2c/	et	1gg	Ver-
2r	.	2r	.	.	.	2e\	à	.	.
!LO:TX:t=P:problem:kreska pseudotaktowa	!	!LO:TX:t=P:problem:kreska pseudotaktowa	!	!	!	!	!	!LO:TX:t=P:problem:kreska pseudotaktowa	!
2C/	et	2C/	et	.	.	1g\	Ver-	2gg\	-bis
=33-	=33-	=33-	=33-	=33-	=33-	=33-	=33-	=33-	=33-
!	!	!	!	!	!	!	!	!LO:LB:g=original	!
2E/	à	2E/	à	2r	.	.	.	2ee\	im-
!	!	!	!	!	!	!LO:TX:t=P:problem:kreska pseudotaktowa	!	!LO:TX:t=P:problem:kreska pseudotaktowa	!
1G	Ver-	1G	Ver-	2G/	et	2g\	-bis	2ee\	-pi-
.	.	.	.	2B\	à	2g\	im-	2.dd\	-o-
!LO:TX:t=P:problem:kreska pseudotaktowa	!	!LO:TX:t=P:problem:kreska pseudotaktowa	!	!	!	!LO:TX:t=P:problem:kreska pseudotaktowa	!	!	!
2G\	-bis	2G\	-bis	1d\	Ver-	2g\	-pi-	.	.
!	!	!	!	!	!	!	!	!LO:TX:t=P:problem:kreska pseudotaktowa	!
.	.	.	.	.	.	.	.	4cc\	.
=34-	=34-	=34-	=34-	=34-	=34-	=34-	=34-	=34-	=34-
2G\	im-	2G\	im-	.	.	1g	-o-	4b/	.
.	.	.	.	.	.	.	.	4a/	.
!LO:TX:t=P:problem:kreska pseudotaktowa	!	!LO:TX:t=P:problem:kreska pseudotaktowa	!	!LO:TX:t=P:problem:kreska pseudotaktowa	!	!	!	!	!
2G\	-pi-	2G\	-pi-	2d\	-bis	.	.	1b	.
1G	-o-	1G	-o-	2d\	im-	2d,</	-rum	.	.
!	!	!	!	!LO:TX:t=P:problem:kreska pseudotaktowa	!	!LO:TX:t=P:problem:kreska pseudotaktowa	!	!LO:TX:t=P:problem:kreska pseudotaktowa	!
.	.	.	.	2d\	-pi-	2g\	non	2g,</	-rum
=35-	=35-	=35-	=35-	=35-	=35-	=35-	=35-	=35-	=35-
!LO:TX:t=P:problem:kreska pseudotaktowa	!	!LO:TX:t=P:problem:kreska pseudotaktowa	!	!LO:LB:g=original	!	!	!	!	!
1D,<	-rum	1D,<	-rum	1d	-o-	(2.fny\	.	2f/	non
.	.	.	.	.	.	.	.	2.ff\	ti-
!	!	!	!	!	!	!LO:TX:t=P:problem:kreska pseudotaktowa	!	!	!
.	.	.	.	.	.	4g\)	.	.	.
!LO:TX:t=P:problem:kreska pseudotaktowa	!	!LO:TX:t=P:problem:kreska pseudotaktowa	!	!	!	!	!	!	!
!LO:LB:g=original	!	!	!	!	!	!	!	!	!
1F	non	1F	non	2A,</	-rum	4a\	.	.	.
.	.	.	.	.	.	4b\	.	4ee\	.
!	!	!	!	!LO:TX:t=P:problem:kreska pseudotaktowa	!	!LO:TX:t=P:problem:kreska pseudotaktowa:między nutą i kropką	!	!	!
.	.	.	.	2A/	non	[<2a\	ti-	1dd\	.
=36-	=36-	=36-	=36-	=36-	=36-	=36-	=36-	=36-	=36-
!	!	!	!	!	!	!LO:N:xstem	!	!	!
2.E/	ti-	2.E/	ti-	2B/	ti-	4a\]	.	.	.
.	.	.	.	.	.	4g\	.	.	.
.	.	.	.	4A/	.	1g	.	2cc\	-mu-
4E/	-mu-	4E/	-mu-	4G/	.	.	.	.	.
!LO:TX:t=P:problem:kreska pseudotaktowa	!	!LO:TX:t=P:problem:kreska pseudotaktowa	!	!	!	!	!	!LO:TX:t=P:problem:kreska pseudotaktowa	!
1D	-it	1D	-it	2.A/	-mu-	.	.	[<1dd	-it.
.	.	.	.	.	.	2f#X\	-mu-	.	.
.	.	.	.	4A/	-it	.	.	.	.
=37-	=37-	=37-	=37-	=37-	=37-	=37-	=37-	=37-	=37-
!	!	!	!	!LO:TX:t=P:problem:kreska pseudotaktowa	!	!LO:TX:t=P:problem:kreska pseudotaktowa	!	!LO:TX:t=P:problem:kreska pseudotaktowa	!
2r	.	2r	.	1G,<	.	1g,<	-it.	1dd]	.
!	!	!LO:TX:t=P:problem:kreska pseudotaktowa	!	!	!	!	!	!	!
2G\	Fun-	2G\	Fun-	.	.	.	.	.	.
!LO:TX:t=P:problem:kreska pseudotaktowa	!	!LO:TX:t=P:problem:kreska pseudotaktowa	!	!	!	!	!	!	!
!	!	!	!	!LO:TX:t=P:problem:kreska pseudotaktowa	!	!	!	!	!
1A	-da-	1A	-da-	00r	.	2e/	fun-	2r	.
*	*	*custos:F	*	*	*	*	*	*	*
.	.	.	.	.	.	1fny\	-da-	2cc\	Fun-
=38-	=38-	=38-	=38-	=38-	=38-	=38-	=38-	=38-	=38-
!	!	!LO:LB:g=original	!	!	!	!	!	!LO:TX:t=P:problem:kreska pseudotaktowa	!
2F,<\	-t(us)	2F,<\	-t(us)	.	.	.	.	1dd	-da-
!	!	!	!	!	!	!LO:TX:t=P:problem:kreska pseudotaktowa	!	!	!
1G	e-	1G	e-	.	.	2d/	-t(us)	.	.
!	!	!	!	!	!	!LO:LB:g=original	!	!	!
.	.	.	.	.	.	1e	e-	2b,<\	-t(us)
!LO:TX:t=P:problem:kreska pseudotaktowa	!	!LO:TX:t=P:problem:kreska pseudotaktowa	!	!	!	!	!	!	!
2E/	-nim	2E/	-nim	.	.	.	.	1cc\	e-
=39-	=39-	=39-	=39-	=39-	=39-	=39-	=39-	=39-	=39-
!LO:TX:t=P:problem:kreska pseudotaktowa	!	!LO:TX:t=P:problem:kreska pseudotaktowa	!	!	!	!	!	!	!
1F	e-	1F	e-	.	.	2c,</	-nim	.	.
!	!	!	!	!	!	!	!	!LO:TX:t=P:problem:kreska pseudotaktowa	!
.	.	.	.	.	.	1f	e-	2a/	-nim
*	*	*	*	*	*	*	*	*custos:cc	*
!LO:TX:t=P:problem:kreska pseudotaktowa	!	!LO:TX:t=P:problem:kreska pseudotaktowa	!	!	!	!	!	!LO:LB:g=original	!
1C,<	-rat	1C,<	-rat	2r	.	.	.	2.cc\	e-
!	!	!	!	!	!	!LO:TX:t=P:problem:kreska pseudotaktowa	!	!	!
.	.	.	.	2c\	Fun-	2e\	-rat	.	.
.	.	.	.	.	.	.	.	8b/L	.
.	.	.	.	.	.	.	.	8a/J	.
=40-	=40-	=40-	=40-	=40-	=40-	=40-	=40-	=40-	=40-
!	!	!LO:TX:t=P:problem:kreska pseudotaktowa	!	!LO:TX:t=P:problem:kreska pseudotaktowa	!	!	!	!LO:TX:t=P:problem:kreska pseudotaktowa	!
1r	.	1r	.	1d	-da-	1.g	su-	0g	-rat,
2r	.	2r	.	2B\	-t(us)	.	.	.	.
!	!	!	!	!	!	!LO:TX:t=P:problem:kreska pseudotaktowa	!	!	!
2C/	Fun-	2C/	Fun-	1c\	e-	2e\	-pra	.	.
=41-	=41-	=41-	=41-	=41-	=41-	=41-	=41-	=41-	=41-
!	!	!LO:TX:t=P:problem:kreska pseudotaktowa	!	!	!	!	!	!	!
1F	-da-	1F	-da-	.	.	2f\	fir-	1r	.
!	!	!	!	!LO:TX:t=P:problem:kreska pseudotaktowa	!	!	!	!	!
.	.	.	.	2A/	-nim	2f\	-ma(m)	.	.
2C,</	-t(us)	2C,</	-t(us)	1c	e-	1e	pe-	2r	.
1c\	e-	1c\	e-	.	.	.	.	1gg\	su-
=42-	=42-	=42-	=42-	=42-	=42-	=42-	=42-	=42-	=42-
!	!	!	!	!LO:TX:t=P:problem:kreska pseudotaktowa	!	!LO:TX:t=P:problem:kreska pseudotaktowa	!	!	!
.	.	.	.	1G,<	-rat	1d,<	-tram	.	.
!LO:TX:t=P:problem:kreska pseudotaktowa	!	!	!	!	!	!	!	!LO:TX:t=P:problem:kreska pseudotaktowa	!
2B\	-nim	2Bn\	-nim	.	.	.	.	2dd\	-pra
!LO:TX:t=P:problem:kreska pseudotaktowa	!	!LO:TX:t=P:problem:kreska pseudotaktowa	!	!LO:LB:g=original	!	!	!	!	!
!LO:LB:g=original	!	!	!	!	!	!	!	!	!
1A	e-	1A	e-	0r	.	1r	.	2ee\	fir-
.	.	.	.	.	.	.	.	2ff\	-ma(m)
=43-	=43-	=43-	=43-	=43-	=43-	=43-	=43-	=43-	=43-
2G,<\	-rat	2G,<\	-rat	.	.	2r	.	2.gg\	pe-
!	!	!	!	!	!	!LO:TX:t=P:problem:kreska pseudotaktowa	!	!	!
1c	Fun-	1c	Fun-	.	.	2g\	Fun-	.	.
!	!	!	!	!	!	!	!	!LO:TX:t=P:problem:kreska pseudotaktowa	!
.	.	.	.	.	.	.	.	4ff\	.
!	!	!	!	!LO:TX:t=P:problem:kreska pseudotaktowa	!	!	!	!	!
.	.	.	.	1r	.	1a	-da-	(2ee\	.
1d\	-da-	1d\	-da-	.	.	.	.	2ff\)	.
=44-	=44-	=44-	=44-	=44-	=44-	=44-	=44-	=44-	=44-
!	!	!	!	!	!	!	!	!LO:TX:t=P:problem:kreska pseudotaktowa	!
.	.	.	.	2r	.	2f,<\	-t(us)	1dd,<	-tram
!LO:TX:t=P:problem:kreska pseudotaktowa	!	!LO:TX:t=P:problem:kreska pseudotaktowa	!	!	!	!	!	!	!
2Bn\	-t(us)	2B\	-t(us)	2d\	Fun-	1g	e-	.	.
*	*	*custos:c	*	*	*	*	*	*	*
!LO:TX:t=P:problem:kreska pseudotaktowa	!	!LO:LB:g=original	!	!LO:TX:t=P:problem:kreska pseudotaktowa	!	!	!	!	!
1c	e-	1c	e-	1e	-da-	.	.	0r	.
!	!	!	!	!	!	!LO:TX:t=P:problem:kreska pseudotaktowa	!	!	!
.	.	.	.	.	.	2e\	-nim	.	.
=45-	=45-	=45-	=45-	=45-	=45-	=45-	=45-	=45-	=45-
!	!	!	!	!	!	!	!	!LO:TX:t=P:problem:kreska pseudotaktowa	!
2A,<\	-nim	2A,<\	-nim	2c,<\	-t(us)	1f	e-	.	.
1Bn	e-	1Bn	e-	1d	e-	.	.	.	.
.	.	.	.	.	.	2d,</	-rat	1r	.
!LO:TX:t=P:problem:kreska pseudotaktowa	!	!	!	!LO:TX:t=P:problem:kreska pseudotaktowa	!	!LO:TX:t=P:problem:kreska pseudotaktowa	!	!	!
2G,<\	-rat	2G,<\	-rat	2B\	-nim	2g\	su-	.	.
*	*	*	*	*	*	*custos:e	*	*	*
=46-	=46-	=46-	=46-	=46-	=46-	=46-	=46-	=46-	=46-
!	!	!LO:TX:t=P:problem:kreska pseudotaktowa	!	!	!	!LO:LB:g=original	!	!	!
1A	su-	1A	su-	1c	e-	2e\	-pra	1ee	Fun-
.	.	.	.	.	.	1a	fir-	.	.
2F,<\	-pra	2F,<\	-pra	2A,<\	-rat	.	.	2ff\	-da-
!	!	!	!	!LO:TX:t=P:problem:kreska pseudotaktowa	!	!LO:TX:t=P:problem:kreska pseudotaktowa	!	!	!
1G\	fir-	1G\	fir-	[<2B\	su-	2g,<\	-ma(m)	2dd\	-t(us)
=47-	=47-	=47-	=47-	=47-	=47-	=47-	=47-	=47-	=47-
.	.	.	.	2B\]	.	2d/	Pe-	2gg\	e-
!LO:TX:t=P:problem:kreska pseudotaktowa	!	!LO:TX:t=P:problem:kreska pseudotaktowa	!	!LO:TX:t=P:problem:kreska pseudotaktowa	!	!	!	!LO:TX:t=P:problem:kreska pseudotaktowa	!
2C/	-mam	2C/	-mam	2c\	-pra	1g	.	2ee\	-nim
1D	pe-	1D	pe-	2A\	fir-	.	.	1.dd	e-
.	.	.	.	2A\	-mam	2f#X\	.	.	.
=48-	=48-	=48-	=48-	=48-	=48-	=48-	=48-	=48-	=48-
!LO:TX:t=P:problem:kreska pseudotaktowa	!	!LO:TX:t=P:problem:kreska pseudotaktowa	!	!	!	!LO:TX:t=P:problem:kreska pseudotaktowa	!	!	!
1G,<	-tram	1G,<	-tram	1Bn	Pe-	1g	-tram	.	.
!	!	!	!	!	!	!	!	!LO:TX:t=P:problem:kreska pseudotaktowa	!
.	.	.	.	.	.	.	.	2dd\	-rat
!LO:LB:g=original	!	!	!	!LO:TX:t=P:problem:kreska pseudotaktowa	!	!	!	!LO:LB:g=original	!
2r	.	2r	.	1G	-tram	2r	.	2.b\	su-
1G\	Fun-	1G\	Fun-	.	.	2g\	fun-	.	.
!	!	!	!	!	!	!	!	!LO:TX:t=P:problem:kreska pseudotaktowa	!
.	.	.	.	.	.	.	.	4cc\	-pra
=49-	=49-	=49-	=49-	=49-	=49-	=49-	=49-	=49-	=49-
!	!	!	!	!LO:LB:g=original	!	!	!	!	!
.	.	.	.	2r	.	2g\	-da-	(2dd\	fir-
!	!	!	!	!	!	!LO:TX:t=P:problem:kreska pseudotaktowa	!	!	!
1A	-da-	1A	-da-	1c	Fun-	2e\	-t(us)	2cc\)	.
.	.	.	.	.	.	2a\	e-	2a/	.
!LO:TX:t=P:problem:kreska pseudotaktowa	!	!LO:TX:t=P:problem:kreska pseudotaktowa	!	!	!	!	!	!	!
2F\	-t(us)	2F\	-t(us)	1d\	-da-	2a\	-nim	2a,</	-mam
=50-	=50-	=50-	=50-	=50-	=50-	=50-	=50-	=50-	=50-
!	!	!	!	!	!	!	!	!LO:TX:t=P:problem:kreska pseudotaktowa	!
1G	e-	1G	e-	.	.	1.g	e-	1b	pe-
!	!	!	!	!LO:TX:t=P:problem:kreska pseudotaktowa	!	!	!	!	!
.	.	.	.	2B\	-t(us)	.	.	.	.
2E,</	-nim	2E/	-nim	2c\	e-	.	.	2g,</	-tra
!	!	!	!	!	!	!LO:TX:t=P:problem:kreska pseudotaktowa	!	!	!
1F\	e-	1F\	e-	1A\	-nim	2a\	-rat	2.cc\	su-
=51-	=51-	=51-	=51-	=51-	=51-	=51-	=51-	=51-	=51-
.	.	.	.	.	.	2fny\	su-	.	.
.	.	.	.	.	.	.	.	4dd\	.
!LO:TX:t=P:problem:kreska pseudotaktowa	!	!LO:TX:t=P:problem:kreska pseudotaktowa	!	!	!	!LO:TX:t=P:problem:kreska pseudotaktowa	!	!LO:TX:t=P:problem:kreska pseudotaktowa	!
2C/	-rat	2C/	-rat	1c	e-	2g\	-pra	2ee\	-pra
!LO:TX:t=P:problem:kreska pseudotaktowa:między nutą i kropką	!	!LO:LB:g=original	!	!	!	!	!	!	!
1.F	su-	1.F	su-	.	.	(4a\	fir-	2a,</	.
.	.	.	.	.	.	4g\	.	.	.
!	!	!	!	!LO:TX:t=P:problem:kreska pseudotaktowa	!	!	!	!	!
.	.	.	.	2A/	-rat	4f\	.	2.cc\	fir-
.	.	.	.	.	.	4e\)	.	.	.
*	*	*	*	*	*	*custos:f	*	*	*
=52-	=52-	=52-	=52-	=52-	=52-	=52-	=52-	=52-	=52-
!	!	!	!	!	!	!LO:LB:g=original	!	!	!
.	.	.	.	2.c\	su-	(2f\	.	.	.
.	.	.	.	.	.	.	.	4dd\	-ma(m)
!LO:TX:t=P:problem:kreska pseudotaktowa	!	!LO:TX:t=P:problem:kreska pseudotaktowa	!	!	!	!LO:TX:t=P:problem:kreska pseudotaktowa	!	!	!
2E,</	-pra	2E/	-pra	.	.	2g\)	.	2ee\	Pe-
!	!	!	!	!LO:TX:t=P:problem:kreska pseudotaktowa	!	!	!	!	!
.	.	.	.	4B\	.	.	.	.	.
2F\	fir-	2F\	fir-	2A\	.	2a\	-mam	0.dd	.
!LO:TX:t=P:problem:kreska pseudotaktowa	!	!	!	!LO:TX:t=P:problem:kreska pseudotaktowa	!	!LO:TX:t=P:problem:kreska pseudotaktowa	!	!	!
2G\	-mam	2G\	-mam	2Bn\	-pra	2g,<\	.	.	.
*custos:D	*	*	*	*	*	*	*	*	*
=53-	=53-	=53-	=53-	=53-	=53-	=53-	=53-	=53-	=53-
!LO:TX:t=P:problem:kreska pseudotaktowa	!	!	!	!	!	!	!	!	!
!LO:LB:g=original	!	!	!	!	!	!	!	!	!
[1D	pe-	0D	pe-	2A/	fir-	2f#X\	Pe-	.	.
.	.	.	.	2G/	-ma(m)	1g	.	.	.
1D]	.	.	.	1A	pe-	.	.	.	.
!	!	!	!	!	!	!LO:TX:t=P:problem:kreska pseudotaktowa	!	!	!
.	.	.	.	.	.	2f#X\	.	.	.
=54-	=54-	=54-	=54-	=54-	=54-	=54-	=54-	=54-	=54-
!LO:TX:b:t=Vertat(ur)	!	!LO:TX:b:t=Vertat(ur)	!	!LO:TX:b:t=Vertat(ur)	!	!LO:TX:b:t=Vertat(ur)	!	!LO:TX:b:t=Vertat(ur)	!
0G;	-tram.	0G;	-tram.	0Bn;	-tram	0g;	-tram	0dd	-tram
*custos:G	*	*custos:G	*	*	*	*	*	*custos:dd	*
=-	=-	=-	=-	=-	=-	=-	=-	=-	=-
*-	*-	*-	*-	*-	*-	*-	*-	*-	*-
!!!system-decoration: [(s1,s2,s3,s4,s5)]
!!!RDF**kern: < = below
!!!ENC: Andrzej Gręziak
!!!END: 2024-04-16
!!!EED: Marta Chmielewska
!!!EEV: 2024-05-31
